X:18
T:Reel de Montebello
C:Richard Forest
M:4/4
K:Em
EABc ecBA | FABc ecBA | GABc dBGB | edBA GEED | \
EABc ecBA | FABc ecBA | GABc dBGE |1 EDEG A3 z :|2 EDEG ABce |: \
aece gecA | GABc dcBd | HgddHf ddHgd | edef e2 ce | \
aece gecA | GABc dcBd | HgedHg edBd |1 cBcd cAce :|2 cBcd cBAG :|
